assets/img/apps/css3-icon.svg

<?xml version="1.0" encoding="UTF-8"?><svg id="Layer_1" xmlns="http://www.w3.org/2000/svg" xmlns:xlink="http://www.w3.org/1999/xlink" viewBox="0 0 96 96"><defs><style>.cls-1{fill:url(#linear-gradient-2);fill-rule:evenodd;}.cls-2{fill:url(#linear-gradient);}</style><linearGradient id="linear-gradient" x1="33.81" y1="19.7" x2="103.28" y2="158.23" gradientUnits="userSpaceOnUse"><stop offset="0" stop-color="#48eb92"/><stop offset="1" stop-color="#000"/></linearGradient><linearGradient id="linear-gradient-2" x1="41.6" y1="42.6" x2="73.87" y2="84.27" gradientUnits="userSpaceOnUse"><stop offset="0" stop-color="#48eb92"/><stop offset="1" stop-color="#000"/></linearGradient></defs><path class="cls-2" d="m88,0H8C3.58,0,0,3.58,0,8v80c0,4.42,3.58,8,8,8h80c4.42,0,8-3.58,8-8V8c0-4.42-3.58-8-8-8Zm-34.12,17.45h4.65l-4.65-5.04v-2.4h9.39v2.81h-4.47l4.65,5.04v2.4h-9.57v-2.81Zm-11.29,0h4.65l-4.65-5.04v-2.4h9.39v2.81h-4.47l4.65,5.04v2.4h-9.57v-2.81Zm-10.04-7.45h8.25v2.93h-4.82v4.4h4.82v2.93h-8.25v-10.26Zm37.46,69.89l-22.05,6.11-21.99-6.1-4.9-54.96h53.84l-4.9,54.95Z"/><polygon class="cls-1" points="64.9 35.7 48.02 35.7 48 35.7 31.14 35.7 31.3 37.51 31.61 40.93 31.74 42.44 31.76 42.44 48 42.44 48.02 42.44 57.54 42.44 56.92 49.34 48 49.34 48 49.34 39.99 49.34 40.15 51.15 40.45 54.57 40.59 56.08 40.61 56.08 48 56.08 48 56.08 56.32 56.08 55.53 64.83 48.02 66.85 48.02 66.85 48.01 66.86 40.5 64.83 40.02 59.45 36.38 59.45 33.26 59.45 34.2 70.04 48.01 73.87 48.04 73.86 48.04 73.86 61.83 70.04 61.94 68.9 63.08 56.08 63.08 56.08 63.09 56.04 63.11 55.8 63.11 55.8 64.74 37.51 64.9 35.7"/></svg>

<?xml version="1.0" encoding="utf-8"?>
<!-- Generator: Adobe Illustrator 27.3.1, SVG Export Plug-In . SVG Version: 6.00 Build 0)  -->
<svg version="1.1" id="Layer_1" xmlns="http://www.w3.org/2000/svg" xmlns:xlink="http://www.w3.org/1999/xlink" x="0px" y="0px"
	 viewBox="0 0 96 96" style="enable-background:new 0 0 96 96;" xml:space="preserve">
<style type="text/css">
	.st0{fill:#48EB92;}
	.st1{fill-rule:evenodd;clip-rule:evenodd;fill:#48EB92;}
</style>
<path class="st0" d="M88,0H8C3.6,0,0,3.6,0,8v80c0,4.4,3.6,8,8,8h80c4.4,0,8-3.6,8-8V8C96,3.6,92.4,0,88,0z M53.9,17.5h4.7l-4.7-5
	V10h9.4v2.8h-4.5l4.7,5v2.4h-9.6V17.5z M42.6,17.5h4.7l-4.7-5V10H52v2.8h-4.5l4.7,5v2.4h-9.6V17.5z M32.5,10h8.2v2.9H36v4.4h4.8v2.9
	h-8.2C32.5,20.3,32.5,10,32.5,10z M70,79.9L48,86l-22-6.1l-4.9-55h53.8L70,79.9z"/>
<polygon class="st1" points="64.9,35.7 48,35.7 48,35.7 31.1,35.7 31.3,37.5 31.6,40.9 31.7,42.4 31.8,42.4 48,42.4 48,42.4 
	57.5,42.4 56.9,49.3 48,49.3 48,49.3 40,49.3 40.2,51.2 40.5,54.6 40.6,56.1 40.6,56.1 48,56.1 48,56.1 56.3,56.1 55.5,64.8 
	48,66.8 48,66.8 48,66.9 40.5,64.8 40,59.5 36.4,59.5 33.3,59.5 34.2,70 48,73.9 48,73.9 48,73.9 61.8,70 61.9,68.9 63.1,56.1 
	63.1,56.1 63.1,56 63.1,55.8 63.1,55.8 64.7,37.5 "/>
</svg>
